contributed-vectors/rankey_alt.svg

<svg xmlns="http://www.w3.org/2000/svg" xml:space="preserve" style="fill-rule:evenodd;clip-rule:evenodd;stroke-linecap:round;stroke-linejoin:round;stroke-miterlimit:1.5" viewBox="0 0 192 192"><path d="M164.5 21.5c0-5.519-4.481-10-10-10h-133c-5.519 0-10 4.481-10 10v133c0 5.519 4.481 10 10 10h133c5.519 0 10-4.481 10-10v-133Z" style="fill:url(#a)" transform="translate(8 8)"/><g transform="translate(24.243 24.143) scale(.74861)"><path d="m83.484 53.861 13.29 37.907M56.009 104.88l40.765-13.112M111.423 134.856 96.774 91.768M130.216 109.704 96.774 91.768M137.433 77.87 96.774 91.768" style="fill:none;stroke:#83868c;stroke-width:.58px"/><circle cx="96.774" cy="91.768" r="9.361" style="fill:#fff"/><circle cx="96.774" cy="91.768" r="9.361" style="fill:#56595b" transform="translate(2.46 31.53) scale(1.12595)"/><circle cx="96.774" cy="91.768" r="9.361" style="fill:#56595b" transform="matrix(1.46183 0 0 1.48473 -85.46 -31.371)"/><circle cx="96.774" cy="91.768" r="9.361" style="fill:#56595b" transform="matrix(.771 0 0 .771 55.603 38.951)"/><circle cx="96.774" cy="91.768" r="9.361" style="fill:#56595b" transform="translate(1.875 -50.675) scale(1.40076)"/><circle cx="96.774" cy="91.768" r="9.361" style="fill:#56595b" transform="matrix(.76718 0 0 .76718 9.24 -16.541)"/></g><defs><linearGradient id="a" x1="0" x2="1" y1="0" y2="0" gradientTransform="matrix(.68915 153 -153 .68915 88 11.5)" gradientUnits="userSpaceOnUse"><stop offset="0" style="stop-color:#96dfd3;stop-opacity:1"/><stop offset="1" style="stop-color:#9abeff;stop-opacity:1"/></linearGradient></defs></svg>

<?xml version="1.0" encoding="UTF-8" standalone="no"?>
<!DOCTYPE svg PUBLIC "-//W3C//DTD SVG 1.1//EN" "http://www.w3.org/Graphics/SVG/1.1/DTD/svg11.dtd">
<svg width="100%" height="100%" viewBox="0 0 192 192" version="1.1" xmlns="http://www.w3.org/2000/svg" xmlns:xlink="http://www.w3.org/1999/xlink" xml:space="preserve" xmlns:serif="http://www.serif.com/" style="fill-rule:evenodd;clip-rule:evenodd;stroke-linecap:round;stroke-linejoin:round;stroke-miterlimit:1.5;">
    <g transform="matrix(1,0,0,1,8,8)">
        <path d="M164.5,21.5C164.5,15.981 160.019,11.5 154.5,11.5L21.5,11.5C15.981,11.5 11.5,15.981 11.5,21.5L11.5,154.5C11.5,160.019 15.981,164.5 21.5,164.5L154.5,164.5C160.019,164.5 164.5,160.019 164.5,154.5L164.5,21.5Z" style="fill:url(#_Linear1);"/>
    </g>
    <g id="Layer1" transform="matrix(0.748611,0,0,0.748611,24.2427,24.1428)">
        <g>
            <path d="M83.484,53.861L96.774,91.768" style="fill:none;stroke:rgb(131,134,140);stroke-width:0.58px;"/>
            <path d="M56.009,104.88L96.774,91.768" style="fill:none;stroke:rgb(131,134,140);stroke-width:0.58px;"/>
            <path d="M111.423,134.856L96.774,91.768" style="fill:none;stroke:rgb(131,134,140);stroke-width:0.58px;"/>
            <path d="M130.216,109.704L96.774,91.768" style="fill:none;stroke:rgb(131,134,140);stroke-width:0.58px;"/>
            <path d="M137.433,77.87L96.774,91.768" style="fill:none;stroke:rgb(131,134,140);stroke-width:0.58px;"/>
        </g>
        <circle cx="96.774" cy="91.768" r="9.361" style="fill:white;"/>
        <g transform="matrix(1.12595,0,0,1.12595,2.45928,31.5292)">
            <circle cx="96.774" cy="91.768" r="9.361" style="fill:rgb(86,89,91);"/>
        </g>
        <g transform="matrix(1.46183,0,0,1.48473,-85.4591,-31.371)">
            <circle cx="96.774" cy="91.768" r="9.361" style="fill:rgb(86,89,91);"/>
        </g>
        <g transform="matrix(0.770992,0,0,0.770992,55.6034,38.951)">
            <circle cx="96.774" cy="91.768" r="9.361" style="fill:rgb(86,89,91);"/>
        </g>
        <g transform="matrix(1.40076,0,0,1.40076,1.87472,-50.6754)">
            <circle cx="96.774" cy="91.768" r="9.361" style="fill:rgb(86,89,91);"/>
        </g>
        <g transform="matrix(0.767175,0,0,0.767175,9.24075,-16.5413)">
            <circle cx="96.774" cy="91.768" r="9.361" style="fill:rgb(86,89,91);"/>
        </g>
    </g>
    <defs>
        <linearGradient id="_Linear1" x1="0" y1="0" x2="1" y2="0" gradientUnits="userSpaceOnUse" gradientTransform="matrix(0.689149,153,-153,0.689149,88,11.5)"><stop offset="0" style="stop-color:rgb(150,223,211);stop-opacity:1"/><stop offset="1" style="stop-color:rgb(154,190,255);stop-opacity:1"/></linearGradient>
    </defs>
</svg>
